X:62
T:A Lancashire Carol
C:Dave Roberts
Z:Anahata (anahata@treewind.co.uk)
M:3/4
K:Am
EG | "Am"A3B cB | A2e2 dc |"Em"B3cBA |B2E2 EG |\
"Am"A3B cB |A2 e2 dc | B3"Dm"f ed | e4 :|
|: ef | "C"g3 ece | "G"d2 G2 AB | "F"cBAcBA | "F"B2E2 EG |\
"Am"A3B cB |A2 e2 dc | "Em"BABdcB | "Am"A4 :|
